!!!COM:	Bach, Johann Sebastian
!!!CDT:	1685/02/21/-1750/07/28/
!!!OTL@@DE:	Nun ruhen alle W&auml;lder
!!!SCT:	BWV 392
!!!PC#:	289
!!!AGN:	chorale
**kern	**kern	**kern	**kern
*ICvox	*ICvox	*ICvox	*ICvox
*Ibass	*Itenor	*Ialto	*Isoprn
*I"Bass	*I"Tenor	*I"Alto	*I"Soprano
*clefF4	*clefGv2	*clefG2	*clefG2
*k[b-e-]	*k[b-e-]	*k[b-e-]	*k[b-e-]
*B-:	*B-:	*B-:	*B-:
*M4/4	*M4/4	*M4/4	*M4/4
*met(c)	*met(c)	*met(c)	*met(c)
*MM100	*MM100	*MM100	*MM100
4BB-	4f	4b-	4dd
=1	=1	=1	=1
8E-L	4e-	4g	4b-
8DJ	.	.	.
4C	4e-	4a	4cc
4BB-	4f	4b-	8ddL
.	.	.	8ee-J
4D	4f	4b-	4ff
=2	=2	=2	=2
4C	4g	4b-	2ee-
4F	4f	4a	.
4BB-;	4f;	4b-;	4dd;
4B-	8B-L	4f	8ddL
.	8cJ	.	8ee-J
=3	=3	=3	=3
8BB-L	8dL	4b-	4ff
8CJ	8e-J	.	.
8DL	4f	[4b-	4ff
8E-J	.	.	.
4F	4f	8b-L]	4cc
.	.	8aJ	.
4D	8fL	4a	8ddL
.	8e-J	.	8ccJ
=4	=4	=4	=4
8GL	4d	2g	2b-
8FJ	.	.	.
8EL	4c	.	.
8CJ	.	.	.
4F;	4c;	4f;	4a;
8FL	4A	4c	4f
8E-J	.	.	.
=5	=5	=5	=5
4D	8B-L	4f	4b-
.	8dJ	.	.
4C	4e-	8gL	4cc
.	.	8aJ	.
4BB-	8fL	4b-	8ddL
.	8dJ	.	16ee-L
.	.	.	16ffJJ
4E-	4B-	4b-	8ee-L
.	.	.	8ddJ
=6	=6	=6	=6
2F;	2A;	2f;	2cc;
4r	4ry	4ry	4r
4F#	4d	4a	4dd
=7	=7	=7	=7
4G	8dL	8aL	4b-
.	8e-J	8gJ	.
4A	8e-L	8gL	4cc
.	8fnXJ	8fnXJ	.
4B-	2d	8fL	8ddL
.	.	8gJ	8ee-J
4B	.	8a-L	4ff
.	.	8gJ	.
=8	=8	=8	=8
4c	4G	4g	2ee-
4C	4AnX	4f#	.
4G;	4B;	4g;	4dd;
4G	4g	4b-X	8ddL
.	.	.	8ee-J
=9	=9	=9	=9
8AL	8fnXL	8ccL	4ffnX
8FJ	8e-J	8aJ	.
[4B-X	4d	4b-	4ff
8B-L]	8eL	8gL	4cc
8AJ	8fJ	8fJ	.
8GL	4f	[4a	4dd
8FJ	.	.	.
=10	=10	=10	=10
4G	4f	4a]	2b-
4C	4e	4g	.
4F;	4c;	4f;	4a;
8FL	4A	4c	4f
8E-J	.	.	.
=11	=11	=11	=11
4D	4.B-	4f	4b-
4C	.	4e-X	4cc
.	8A	.	.
4BB-	4B-	4f	4dd
4E-	4B-	4g	8ccL
.	.	.	16ddL
.	.	.	16ee-JJ
=12	=12	=12	=12
4F	4B-	4f	4dd
4FF	8AL	4f	4cc
.	8e-J	.	.
4BB-;	4d;	4f;	4b-;
==	==	==	==
*-	*-	*-	*-
!!!hum2abc: -Q ''
!!!title: @{PC#}. @{OTL@@DE}
!!!YOR1: 371 vierstimmige Choralges&auml;nge von Johann Sebastian Bach, 
!!!YOR2: 4th ed. by Alfred D&ouml;rffel (Leipzig: Breitkopf und H&auml;rtel, 
!!!YOR2: c.1875). 178 pp. Plate "V.A.10".  reprint: J.S. Bach, 371 Four-Part 
!!!YOR4: Chorales (New York: Associated Music Publishers, Inc., c.1940).
!!!SMS: B&H, 4th ed, Alfred D&ouml;rffel, c.1875, plate V.A.10
!!!EED:  Craig Stuart Sapp
!!!EEV:  2009/05/22
